X:1
T:Anaheim, LMD
T:Anaheim, LMD
T:William James Kirkpatrick, 1906
T:Public Domain Courtesy of the Cyber Hymnal™
C:William James Kirkpatrick, 1906
Z:Public Domain
Z:Courtesy of the Cyber Hymnal™
%%score ( 1 2 ) 3
L:1/8
Q:1/4=90
M:3/4
K:F
V:1 treble 
V:2 treble 
V:3 bass 
V:1
 C[CF] [CG] | [FA]3 F [EG][EA] | F3 C [CF][FA] | [Fc]3 [FA] [EG][DF] | [EG]3 C [CF][CG] | %5
 [FA]3 F [FG][FA] | [FB]3 [B,D] [DF][B,D] | [A,C]3 [FA] [EA][EG] | F3 [Fc] [Ec]<[Ec] | %9
 [Fc]3 [FA] [EG][EA] | F3 [Fc] [Ec]<[Ec] | [Fc]3 [FA] [CG][DF] | [EG]3 C [CF][CG] | %13
 [FA]3 F [FG][FA] | [FB]3 [B,D] [DF][B,D] | [A,C]3 [FA] [EA][EG] | F3 |] %17
V:2
 C x2 | x3 F x2 | F3 C x2 | x6 | x3 C x2 | x3 F x2 | x6 | x6 | F3 x3 | x6 | F3 x3 | x6 | x3 C x2 | %13
 x3 F x2 | x6 | x6 | F3 |] %17
V:3
 [F,A,][F,A,] [F,B,] | [F,C]3 [F,A,] [C,B,][C,C] | [F,A,]3 [F,A,] [F,A,][F,C] | %3
 [F,A,]3 [F,C] [G,C][G,=B,] | [C,B,]3 [F,A,] [F,A,][F,B,] | [F,C]3 [F,A,] [F,B,][F,C] | %6
 [B,,D]3 [B,,F,] [B,,F,][B,,F,] | [C,F,]3 [C,C] [C,C][C,B,] | [F,A,]3 [F,A,] [G,B,]<[G,B,] | %9
 [A,C]3 [F,C] [C,B,][C,C] | [F,A,]3 [F,A,] [G,B,]<[G,B,] | [A,C]3 [F,C] [E,C][D,=B,] | %12
 [C,C]3 [F,A,] [F,A,][F,B,] | [F,C]3 [F,A,] [F,B,][F,C] | [B,,D]3 [B,,F,] [B,,F,][B,,F,] | %15
 [C,F,]3 [C,C] [C,C][C,B,] | [F,A,]3 |] %17

